usr/share/icons/biglinux-icons-material/scalable/mimetypes/application-x-plasma.svg

<svg width="24" height="24" viewBox="0 0 24 24" fill="none" xmlns="http://www.w3.org/2000/svg">
<rect x="1" y="1" width="22" height="22" rx="6.6" fill="url(#paint0_radial_3_1111)"/>
<path opacity="0.75" d="M8.5 5C7.97118 5 7.54545 5.42573 7.54545 5.95455C7.54545 6.48336 7.97118 6.90909 8.5 6.90909C9.02882 6.90909 9.45455 6.48336 9.45455 5.95455C9.45455 5.42573 9.02882 5 8.5 5ZM13.9091 5.06364L12 6.97273L15.1818 10.1545L12 13.3364L13.9091 15.2455L19 10.1545L13.9091 5.06364ZM6.59091 10.1545C5.70955 10.1545 5 10.8641 5 11.7455C5 12.6268 5.70955 13.3364 6.59091 13.3364C7.47227 13.3364 8.18182 12.6268 8.18182 11.7455C8.18182 10.8641 7.47227 10.1545 6.59091 10.1545ZM10.0909 15.2455C9.03327 15.2455 8.18182 16.0969 8.18182 17.1545C8.18182 18.2122 9.03327 19.0636 10.0909 19.0636C11.1485 19.0636 12 18.2122 12 17.1545C12 16.0969 11.1485 15.2455 10.0909 15.2455Z" fill="white"/>
<defs>
<radialGradient id="paint0_radial_3_1111" cx="0" cy="0" r="1" gradientUnits="userSpaceOnUse" gradientTransform="translate(17.5 1) rotate(116.565) scale(24.5967)">
<stop stop-color="#B38AD9"/>
<stop offset="1" stop-color="#7D45B1"/>
</radialGradient>
</defs>
</svg>

<svg xmlns="http://www.w3.org/2000/svg" width="24" height="24" fill="none"><rect width="22" height="22" x="1" y="1" fill="url(#a)" rx="6.6"/><path fill="#fff" d="M8.5 5a.952.952 0 0 0-.955.955c0 .528.426.954.955.954a.952.952 0 0 0 .955-.954A.952.952 0 0 0 8.5 5Zm5.41.064L12 6.973l3.182 3.182L12 13.335l1.91 1.91L19 10.154l-5.09-5.091Zm-7.32 5.09c-.88 0-1.59.71-1.59 1.591 0 .882.71 1.591 1.59 1.591.882 0 1.592-.71 1.592-1.59 0-.882-.71-1.591-1.591-1.591Zm3.5 5.091c-1.057 0-1.908.852-1.908 1.91 0 1.057.851 1.909 1.909 1.909S12 18.212 12 17.154a1.905 1.905 0 0 0-1.91-1.909Z" opacity=".75"/><defs><radialGradient id="a" cx="0" cy="0" r="1" gradientTransform="rotate(116.565 8.441 5.908) scale(24.5967)" gradientUnits="userSpaceOnUse"><stop stop-color="#B38AD9"/><stop offset="1" stop-color="#7D45B1"/></radialGradient></defs></svg>
